T: Pull The Knife And Stick It Again
M: 6/8
L: 1/8
K: Ador
|:~A3 cBA|GEA GEG|~A3 cBA|d2e dBG|
~A3 cBA|GEA GAB|c2A BAG|1 EAG A2G:|2 EAG A3||
|:age edB|AGE ~G3|age edB|def gab|
age edB|AGE GAB|c2A BAG|1 EAG A3:|2 EAG A2G||
